Papirus-nordic/22x22/places/folder-red-music-open.svg

<svg xmlns="http://www.w3.org/2000/svg" width="22" height="22" version="1">
 <rect width="20" height="12" x="1" y="8.5" rx="1" ry="1" opacity=".2"/>
 <path d="M1 16c0 .554.446 1 1 1h18c.554 0 1-.446 1-1V5c0-.554-.446-1-1-1H10V3c0-.554-.446-1-1-1H2c-.554 0-1 .446-1 1" fill="#ae4f58"/>
 <rect width="20" height="10" x="1" y="9.5" rx="1" ry="1" opacity=".2"/>
 <rect width="16" height="8" x="3" y="6" rx="1" ry="1" fill="#e4e4e4"/>
 <rect width="20" height="10" x="1" y="10" rx="1" ry="1" fill="#bf616a"/>
 <path d="M2 2c-.554 0-1 .446-1 1v.5c0-.554.446-1 1-1h7c.554 0 1 .446 1 1V3c0-.554-.446-1-1-1zm8 2v.5h10c.554 0 1 .446 1 1V5c0-.554-.446-1-1-1z" opacity=".1" fill="#fff"/>
 <path d="M10 16.088a1.5 1.5 0 1 0 1 1.412V14h3v2.088a1.5 1.5 0 1 0 1 1.412v-5c0-.277-.334-.5-.75-.5h-3.5c-.416 0-.75.223-.75.5" fill="#974a4d"/>
</svg>

<svg xmlns="http://www.w3.org/2000/svg" width="22" height="22" version="1">
 <rect style="opacity:0.2" width="20" height="12" x="1" y="8.5" rx="1" ry="1"/>
 <path style="fill:#ae4f58" d="M 1,16 C 1,16.554 1.446,17 2,17 H 20 C 20.554,17 21,16.554 21,16 V 5 C 21,4.446 20.554,4 20,4 H 11 C 9.5,4 9,2 7.5,2 H 2 C 1.446,2 1,2.446 1,3"/>
 <rect style="opacity:0.2" width="20" height="10" x="1" y="9.5" rx="1" ry="1"/>
 <rect style="fill:#e4e4e4" width="16" height="8" x="3" y="6" rx="1" ry="1"/>
 <rect style="fill:#bf616a" width="20" height="10" x="1" y="10" rx="1" ry="1"/>
 <path style="opacity:0.1;fill:#ffffff" d="M 2,2 C 1.446,2 1,2.446 1,3 V 3.5 C 1,2.946 1.446,2.5 2,2.5 H 7.5 C 9,2.5 9.5,4.5 11,4.5 H 20 C 20.554,4.5 21,4.946 21,5.5 V 5 C 21,4.446 20.554,4 20,4 H 11 C 9.5,4 9,2 7.5,2 Z"/>
 <path style="fill:#974a4d" d="M 10,16.088 C 9.839,16.031 9.67,16.001 9.5,16 8.672,16 8,16.672 8,17.5 8,18.329 8.672,19 9.5,19 10.328,19 11,18.329 11,17.5 V 14 H 14 V 16.088 C 13.839,16.031 13.67,16.001 13.5,16 12.672,16 12,16.672 12,17.5 12,18.329 12.672,19 13.5,19 14.328,19 15,18.329 15,17.5 V 12.5 C 15,12.223 14.666,12 14.25,12 H 10.75 C 10.334,12 10,12.223 10,12.5"/>
</svg>
